X:1
T:RVW2/1/129 Sinner's Dream
T:RVW2/1/129 Sinner's Dream
T:Mr. W. Colcombe, Weobley, Herefordshire, July 1909 [3 of 5]
T:Transcribed by Simon Furey and Lewis Jones
C:Transcribed by Simon Furey and Lewis Jones
L:1/8
Q:1/4=110
M:4/4
K:Eb
V:1 treble 
V:1
"^(Editorialsuggestion)" C2 | F2 FG A2 GF |"^(a)" E2 F2 C2 C2 | F2 FG A2 B2 | G6 AB | %5
"^(b)" c3 B A2 G2 |"^(c)" F2 A2 !fermata!B2 !fermata!cB | AGFG A2 G2 | F6 || C2 | F2 FG A2 GF | %11
"^(a) var." E6 C2 | F2 FG A2 B2 | G6 AB |"^(b) var." c3 B AGFA |"^(c) var." B6 cB | AGFG A2 G2 | %17
 F6 |] %18

